X:1
T:Choral Part in Symphony No.9, 4th movement
T:Choral Part in Symphony No.9, 4th movement
T:Transcribed for piano
T:Ludwig van Beethoven
C:Ludwig van Beethoven
%%score { ( 1 4 ) | ( 2 3 ) }
L:1/8
Q:1/4=126
M:3/4
K:D
V:1 treble nm="Piano" snm="Pno."
V:4 treble 
V:2 bass 
V:3 bass 
V:1
!f!"^Allegro assai vivace""^S.""^A." [Af]3 [Af]3 | [Ag]3 [Aa]3 | [Aa]3 [Ag]3 | f3 e3 | %4
 [Fd]3 [Ad]3 | [Ae]3 [Af]3 | [Af]3- [Af]2 [Ae] | [Ae]2 z z2 z | [Af]3 [Af]3 | [Bg]3 [=ca]3 | %10
 [=ca]3 [Bg]3 | [Af]3 [Ge]3 | [Fd]3 [Fd]3 | [Ge]3 [Ff]3 | [Ge]3- [Ge]2 [Fd] | [Fd]2 z4 | %16
 [Ee]3 [Ae]3 | [Af]3 [Ad]3 | [Ae]3 (f2 g) | [Af]3 [Ad]3 | [Ae]3 (([Ff]2 [Eg])) | [cf]3 [ce]3 | %22
 [Fd]3 [^Ge]3 | A3!ff! f3- | [Af]3 [Af]3 | [Bg]3 [=ca]3 | [=ca]3 [Bg]3 | (([Af]3 [Gg]2)) [Be] | %28
 [Fd]3 [Fd]3 | [Ge]3 [Af]3 | [Ge]3- [Ge]2 [Fd] | [Fd]3 z z2 |] %32
V:2
"^T.""^B." D3 D3 | [DE]3 [DF]3 | [A,F]3 [A,E]3 | [A,D]3 ([B,D]2 [CE]) | [DF]3 [A,F]3 | A,3 [A,D]3 | %6
 [A,D]3- [A,D]2 [A,C] | [A,C]2 z z2 z | D3 D3 | D3 D3 | [G,D]3 [G,D]3 | [G,D]3 [G,D]3 | %12
 [A,D]3 [A,D]3 | [A,C]3 [A,D]3 | [A,C]3- [A,C]2 [A,D] | [D,D]2 z4 | [A,C]3 [A,C]3 | [A,D]3 [A,F]3 | %18
 C3 (D2 E) | [A,D]3 [A,F]3 | C3 (D2 E) | [^A,C]3 [F,A,]3 | B,3 B,3 | [=A,C]3 ([A,D-]3 | D3) D3 | %25
 D3 (E2 F) | [G,G]3 [G,G]3 | D3 (B,2 A,) | A,3 D3 | [A,D]3 [A,D]3 | [A,C]3- [A,C]2 [A,D] | %31
 [D,D]3 z z2 |] %32
V:3
 D3 D3 | x6 | x6 | x6 | x6 | A,3 x3 | x6 | x6 | D3 D3 | D3 D3 | x6 | x6 | x6 | x6 | x6 | x6 | x6 | %17
 x6 | A,3 A,3 | x6 | A,3 A,3 | x6 | B,3 E,3 | x6 | D3 D3 | D3 D3 | x6 | G,3 G,3 | A,3 A,3 | x6 | %30
 x6 | x6 |] %32
V:4
 x6 | x6 | x6 | A3 (A2 G) | x6 | x6 | x6 | x6 | x6 | x6 | x6 | x6 | x6 | x6 | x6 | x6 | x6 | x6 | %18
 x3 A3 | x6 | x6 | x6 | x6 | A3 A3- | x6 | x6 | x6 | x6 | x6 | x6 | x6 | x6 |] %32

